;FLAVOR:Marlin
;TIME:2384
;Filament used: 1.37m
;Layer height: 0.2
;MINX:92.2
;MINY:92.2
;MINZ:0.3
;MAXX:127.8
;MAXY:127.8
;MAXZ:20.1
;Generated with Cura_SteamEngine 4.9.0
M140 S60
M105
M190 S60
M104 S200
M105
M109 S200
M82 ;absolute extrusion mode
; Ender 3 Custom Start G-code
G92 E0 ; Reset Extruder
G28 ; Home all axes
G1 Z2.0 F3000 ; Move Z Axis up little to prevent scratching of Heat Bed
G1 X0.1 Y20 Z0.3 F5000.0 ; Move to start position
G1 X0.1 Y200.0 Z0.3 F1500.0 E15 ; Draw the first line
G1 X0.4 Y200.0 Z0.3 F5000.0 ; Move to side a little
G1 X0.4 Y20 Z0.3 F1500.0 E30 ; Draw the second line
G92 E0 ; Reset Extruder
G1 Z2.0 F3000 ; Move Z Axis up little to prevent scratching of Heat Bed
G1 X5 Y20 Z0.3 F5000.0 ; Move over to prevent blob squish
G92 E0
G92 E0
G1 F1500 E-6.5
;LAYER_COUNT:99
;LAYER:0
M107
G1 F300 Z0.5
G0 F6000 X94.623 Y94.349 Z0.5
;TYPE:SKIRT
G1 F300 Z0.3
G1 F1500 E0
G1 F1200 X95.222 Y93.834 E0.03941
G1 X95.87 Y93.383 E0.0788
G1 X96.561 Y92.999 E0.11824
G1 X97.286 Y92.687 E0.15762
G1 X98.039 Y92.45 E0.197
G1 X98.813 Y92.291 E0.23642
G1 X99.598 Y92.21 E0.27579
G1 X100 Y92.2 E0.29586
G1 X120 Y92.2 E1.29366
G1 X120.789 Y92.24 E1.33307
G1 X121.569 Y92.359 E1.37244
G1 X122.334 Y92.557 E1.41186
G1 X123.074 Y92.831 E1.45123
G1 X123.783 Y93.179 E1.49063
G1 X124.454 Y93.597 E1.53007
G1 X125.078 Y94.08 E1.56944
G1 X125.651 Y94.623 E1.60883
G1 X126.166 Y95.222 E1.64824
G1 X126.617 Y95.87 E1.68763
G1 X127.001 Y96.561 E1.72706
G1 X127.313 Y97.286 E1.76644
G1 X127.55 Y98.039 E1.80583
G1 X127.709 Y98.813 E1.84525
G1 X127.79 Y99.598 E1.88462
G1 X127.8 Y100 E1.90468
G1 X127.8 Y120 E2.90249
G1 X127.76 Y120.789 E2.9419
G1 X127.641 Y121.569 E2.98126
G1 X127.443 Y122.334 E3.02069
G1 X127.169 Y123.074 E3.06006
G1 X126.821 Y123.783 E3.09946
G1 X126.403 Y124.454 E3.1389
G1 X125.92 Y125.078 E3.17827
G1 X125.377 Y125.651 E3.21765
G1 X124.778 Y126.166 E3.25706
G1 X124.13 Y126.617 E3.29645
G1 X123.439 Y127.001 E3.33589
G1 X122.714 Y127.313 E3.37527
G1 X121.961 Y127.55 E3.41465
G1 X121.187 Y127.709 E3.45407
G1 X120.402 Y127.79 E3.49345
G1 X120 Y127.8 E3.51351
G1 X100 Y127.8 E4.51131
G1 X99.211 Y127.76 E4.55073
G1 X98.431 Y127.641 E4.59009
G1 X97.666 Y127.443 E4.62951
G1 X96.926 Y127.169 E4.66888
G1 X96.217 Y126.821 E4.70829
G1 X95.546 Y126.403 E4.74773
G1 X94.922 Y125.92 E4.78709
G1 X94.349 Y125.377 E4.82648
G1 X93.834 Y124.778 E4.86589
G1 X93.383 Y124.13 E4.90528
G1 X92.999 Y123.439 E4.94472
G1 X92.687 Y122.714 E4.98409
G1 X92.45 Y121.961 E5.02348
G1 X92.291 Y121.187 E5.0629
G1 X92.21 Y120.402 E5.10227
G1 X92.2 Y120 E5.12233
G1 X92.2 Y100 E6.12014
G1 X92.24 Y99.211 E6.15955
G1 X92.359 Y98.431 E6.19892
G1 X92.557 Y97.666 E6.23834
G1 X92.831 Y96.926 E6.27771
G1 X93.179 Y96.217 E6.31711
G1 X93.597 Y95.546 E6.35655
G1 X94.08 Y94.922 E6.39592
G1 X94.623 Y94.349 E6.4353
G0 F6000 X95.016 Y94.53
G1 F1200 X95.611 Y94.042 E6.4737
G1 X96.253 Y93.619 E6.51205
G1 X96.936 Y93.264 E6.55046
G1 X97.651 Y92.983 E6.58878
G1 X98.393 Y92.777 E6.6272
G1 X99.151 Y92.649 E6.66555
G1 X100 Y92.6 E6.70798
G1 X120 Y92.6 E7.70579
G1 X120.768 Y92.64 E7.74415
G1 X121.528 Y92.759 E7.78253
G1 X122.271 Y92.957 E7.82089
G1 X122.99 Y93.231 E7.85928
G1 X123.676 Y93.578 E7.89764
G1 X124.323 Y93.994 E7.93601
G1 X124.923 Y94.475 E7.97438
G1 X125.47 Y95.016 E8.01276
G1 X125.958 Y95.611 E8.05115
G1 X126.381 Y96.253 E8.08951
G1 X126.736 Y96.936 E8.12791
G1 X127.017 Y97.651 E8.16624
G1 X127.223 Y98.393 E8.20466
G1 X127.351 Y99.151 E8.24301
G1 X127.4 Y100 E8.28544
G1 X127.4 Y120 E9.28324
G1 X127.36 Y120.768 E9.32161
G1 X127.241 Y121.528 E9.35999
G1 X127.043 Y122.271 E9.39835
G1 X126.769 Y122.99 E9.43674
G1 X126.422 Y123.676 E9.47509
G1 X126.006 Y124.323 E9.51347
G1 X125.525 Y124.923 E9.55183
G1 X124.984 Y125.47 E9.59021
G1 X124.389 Y125.958 E9.62861
G1 X123.747 Y126.381 E9.66696
G1 X123.064 Y126.736 E9.70537
G1 X122.349 Y127.017 E9.74369
G1 X121.607 Y127.223 E9.78211
G1 X120.849 Y127.351 E9.82046
G1 X120 Y127.4 E9.86289
G1 X100 Y127.4 E10.86069
G1 X99.232 Y127.36 E10.89906
G1 X98.472 Y127.241 E10.93744
G1 X97.729 Y127.043 E10.9758
G1 X97.01 Y126.769 E11.01419
G1 X96.324 Y126.422 E11.05254
G1 X95.677 Y126.006 E11.09092
G1 X95.077 Y125.525 E11.12929
G1 X94.53 Y124.984 E11.16767
G1 X94.042 Y124.389 E11.20606
G1 X93.619 Y123.747 E11.24442
G1 X93.264 Y123.064 E11.28282
G1 X92.983 Y122.349 E11.32115
G1 X92.777 Y121.607 E11.35957
G1 X92.649 Y120.849 E11.39792
G1 X92.6 Y120 E11.44035
G1 X92.6 Y100 E12.43815
G1 X92.64 Y99.232 E12.47652
G1 X92.759 Y98.472 E12.5149
G1 X92.957 Y97.729 E12.55326
G1 X93.231 Y97.01 E12.59165
G1 X93.578 Y96.324 E12.63
G1 X93.994 Y95.677 E12.66837
G1 X94.475 Y95.077 E12.70674
G1 X95.016 Y94.53 E12.74512
G0 F6000 X95.408 Y94.716
G1 F1200 X95.998 Y94.257 E12.78242
G1 X96.634 Y93.862 E12.81977
G1 X97.308 Y93.538 E12.85708
G1 X98.013 Y93.288 E12.8944
G1 X98.741 Y93.114 E12.93174
G1 X99.483 Y93.019 E12.96906
G1 X100 Y93 E12.99487
G1 X120 Y93 E13.99267
G1 X120.747 Y93.04 E14.03
G1 X121.485 Y93.159 E14.06729
G1 X122.207 Y93.357 E14.10464
G1 X122.903 Y93.63 E14.14194
G1 X123.566 Y93.977 E14.17927
G1 X124.189 Y94.392 E14.21662
G1 X124.763 Y94.871 E14.25392
G1 X125.284 Y95.408 E14.29125
G1 X125.743 Y95.998 E14.32854
G1 X126.138 Y96.634 E14.36589
G1 X126.462 Y97.308 E14.4032
G1 X126.712 Y98.013 E14.44052
G1 X126.886 Y98.741 E14.47786
G1 X126.981 Y99.483 E14.51518
G1 X127 Y100 E14.54099
G1 X127 Y120 E15.5388
G1 X126.96 Y120.747 E15.57612
G1 X126.841 Y121.485 E15.61341
G1 X126.643 Y122.207 E15.65077
G1 X126.37 Y122.903 E15.68806
G1 X126.023 Y123.566 E15.7254
G1 X125.608 Y124.189 E15.76274
G1 X125.129 Y124.763 E15.80004
G1 X124.592 Y125.284 E15.83737
G1 X124.002 Y125.743 E15.87466
G1 X123.366 Y126.138 E15.91202
G1 X122.692 Y126.462 E15.94933
G1 X121.987 Y126.712 E15.98664
G1 X121.259 Y126.886 E16.02399
G1 X120.517 Y126.981 E16.06131
G1 X120 Y127 E16.08712
G1 X100 Y127 E17.08492
G1 X99.253 Y126.96 E17.12224
G1 X98.515 Y126.841 E17.15954
G1 X97.793 Y126.643 E17.19689
G1 X97.097 Y126.37 E17.23419
G1 X96.434 Y126.023 E17.27152
G1 X95.811 Y125.608 E17.30887
G1 X95.237 Y125.129 E17.34617
G1 X94.716 Y124.592 E17.3835
G1 X94.257 Y124.002 E17.42079
G1 X93.862 Y123.366 E17.45814
G1 X93.538 Y122.692 E17.49545
G1 X93.288 Y121.987 E17.53277
G1 X93.114 Y121.259 E17.57011
G1 X93.019 Y120.517 E17.60743
G1 X93 Y120 E17.63324
G1 X93 Y100 E18.63105
G1 X93.04 Y99.253 E18.66837
G1 X93.159 Y98.515 E18.70566
G1 X93.357 Y97.793 E18.74301
G1 X93.63 Y97.097 E18.78031
G1 X93.977 Y96.434 E18.81765
G1 X94.392 Y95.811 E18.85499
G1 X94.871 Y95.237 E18.89229
G1 X95.408 Y94.716 E18.92962
G0 F6000 X95.265 Y95.402
G1 F1200 X95.799 Y94.909 E18.96588
G1 X96.384 Y94.479 E19.0021
G1 X97.013 Y94.115 E19.03836
G1 X97.678 Y93.822 E19.07461
G1 X98.371 Y93.604 E19.11086
G1 X99.083 Y93.464 E19.14706
G1 X100 Y93.4 E19.19292
G1 X120 Y93.4 E20.19072
G1 X120.725 Y93.44 E20.22695
G1 X121.442 Y93.559 E20.26321
G1 X122.141 Y93.757 E20.29945
G1 X122.814 Y94.03 E20.33569
G1 X123.453 Y94.375 E20.37192
G1 X124.05 Y94.789 E20.40816
G1 X124.598 Y95.265 E20.44438
G1 X125.091 Y95.799 E20.48063
G1 X125.521 Y96.384 E20.51686
G1 X125.885 Y97.013 E20.55311
G1 X126.178 Y97.678 E20.58937
G1 X126.396 Y98.371 E20.62561
G1 X126.536 Y99.083 E20.66181
G1 X126.6 Y100 E20.70767
G1 X126.6 Y120 E21.70548
G1 X126.56 Y120.725 E21.7417
G1 X126.441 Y121.442 E21.77796
G1 X126.243 Y122.141 E21.81421
G1 X125.97 Y122.814 E21.85044
G1 X125.625 Y123.453 E21.88667
G1 X125.211 Y124.05 E21.92292
G1 X124.735 Y124.598 E21.95913
G1 X124.201 Y125.091 E21.99539
G1 X123.616 Y125.521 E22.03161
G1 X122.987 Y125.885 E22.06787
G1 X122.322 Y126.178 E22.10412
G1 X121.629 Y126.396 E22.14037
G1 X120.917 Y126.536 E22.17657
G1 X120 Y126.6 E22.22243
G1 X100 Y126.6 E23.22024
G1 X99.275 Y126.56 E23.25646
G1 X98.558 Y126.441 E23.29272
G1 X97.859 Y126.243 E23.32897
G1 X97.186 Y125.97 E23.3652
G1 X96.547 Y125.625 E23.40143
G1 X95.95 Y125.211 E23.43767
G1 X95.402 Y124.735 E23.47389
G1 X94.909 Y124.201 E23.51015
G1 X94.479 Y123.616 E23.54637
G1 X94.115 Y122.987 E23.58263
G1 X93.822 Y122.322 E23.61888
G1 X93.604 Y121.629 E23.65512
G1 X93.464 Y120.917 E23.69133
G1 X93.4 Y120 E23.73719
G1 X93.4 Y100 E24.73499
G1 X93.44 Y99.275 E24.77122
G1 X93.559 Y98.558 E24.80748
G1 X93.757 Y97.859 E24.84372
G1 X94.03 Y97.186 E24.87996
G1 X94.375 Y96.547 E24.91619
G1 X94.789 Y95.95 E24.95243
G1 X95.265 Y95.402 E24.98864
G0 F6000 X95.659 Y95.573
G1 F1200 X96.189 Y95.109 E25.02379
G1 X96.768 Y94.709 E25.0589
G1 X97.389 Y94.377 E25.09403
G1 X98.043 Y94.117 E25.12914
G1 X98.723 Y93.933 E25.16429
G1 X99.419 Y93.827 E25.19941
G1 X100 Y93.8 E25.22843
G1 X120 Y93.8 E26.22623
G1 X120.703 Y93.84 E26.26136
G1 X121.397 Y93.959 E26.29649
G1 X122.072 Y94.157 E26.33159
G1 X122.721 Y94.429 E26.36669
G1 X123.335 Y94.774 E26.40183
G1 X123.906 Y95.185 E26.43693
G1 X124.427 Y95.659 E26.47207
G1 X124.891 Y96.189 E26.50721
G1 X125.291 Y96.768 E26.54232
G1 X125.623 Y97.389 E26.57745
G1 X125.883 Y98.043 E26.61257
G1 X126.067 Y98.723 E26.64771
G1 X126.173 Y99.419 E26.68284
G1 X126.2 Y100 E26.71185
G1 X126.2 Y120 E27.70966
G1 X126.16 Y120.703 E27.74479
G1 X126.041 Y121.397 E27.77992
G1 X125.843 Y122.072 E27.81501
G1 X125.571 Y122.721 E27.85012
G1 X125.226 Y123.335 E27.88525
G1 X124.815 Y123.906 E27.92035
G1 X124.341 Y124.427 E27.95549
G1 X123.811 Y124.891 E27.99064
G1 X123.232 Y125.291 E28.02575
G1 X122.611 Y125.623 E28.06088
G1 X121.957 Y125.883 E28.09599
G1 X121.277 Y126.067 E28.13114
G1 X120.581 Y126.173 E28.16626
G1 X120 Y126.2 E28.19528
G1 X100 Y126.2 E29.19308
G1 X99.297 Y126.16 E29.22821
G1 X98.603 Y126.041 E29.26334
G1 X97.928 Y125.843 E29.29844
G1 X97.279 Y125.571 E29.33354
G1 X96.665 Y125.226 E29.36868
G1 X96.094 Y124.815 E29.40378
G1 X95.573 Y124.341 E29.43892
G1 X95.109 Y123.811 E29.47406
G1 X94.709 Y123.232 E29.50917
G1 X94.377 Y122.611 E29.5443
G1 X94.117 Y121.957 E29.57942
G1 X93.933 Y121.277 E29.61456
G1 X93.827 Y120.581 E29.64969
G1 X93.8 Y120 E29.6787
G1 X93.8 Y100 E30.67651
G1 X93.84 Y99.297 E30.71164
G1 X93.959 Y98.603 E30.74677
G1 X94.157 Y97.928 E30.78186
G1 X94.429 Y97.279 E30.81697
G1 X94.774 Y96.665 E30.85211
G1 X95.185 Y96.094 E30.8872
G1 X95.659 Y95.573 E30.92235
G0 F6000 X96.053 Y95.751
G1 F1200 X96.578 Y95.317 E30.95633
G1 X97.15 Y94.948 E30.99029
G1 X97.762 Y94.649 E31.02427
G1 X98.404 Y94.424 E31.05821
G1 X99.069 Y94.275 E31.09221
G1 X100 Y94.2 E31.13881
G1 X120 Y94.2 E32.13661
G1 X120.68 Y94.24 E32.1706
G1 X121.35 Y94.359 E32.20455
G1 X122.002 Y94.556 E32.23853
G1 X122.626 Y94.828 E32.27249
G1 X123.214 Y95.172 E32.30647
G1 X123.758 Y95.582 E32.34046
G1 X124.249 Y96.053 E32.3744
G1 X124.683 Y96.578 E32.40839
G1 X125.052 Y97.15 E32.44235
G1 X125.351 Y97.762 E32.47633
G1 X125.576 Y98.404 E32.51027
G1 X125.725 Y99.069 E32.54427
G1 X125.8 Y100 E32.59087
G1 X125.8 Y120 E33.58867
G1 X125.76 Y120.68 E33.62265
G1 X125.641 Y121.35 E33.6566
G1 X125.444 Y122.002 E33.69058
G1 X125.172 Y122.626 E33.72454
G1 X124.828 Y123.214 E33.75853
G1 X124.418 Y123.758 E33.79252
G1 X123.947 Y124.249 E33.82646
G1 X123.422 Y124.683 E33.86044
G1 X122.85 Y125.052 E33.8944
G1 X122.238 Y125.351 E33.92839
G1 X121.596 Y125.576 E33.96233
G1 X120.931 Y125.725 E33.99633
G1 X120 Y125.8 E34.04292
G1 X100 Y125.8 E35.04073
G1 X99.32 Y125.76 E35.07471
G1 X98.65 Y125.641 E35.10866
G1 X97.998 Y125.444 E35.14264
G1 X97.374 Y125.172 E35.1766
G1 X96.786 Y124.828 E35.21059
G1 X96.242 Y124.418 E35.24458
G1 X95.751 Y123.947 E35.27852
G1 X95.317 Y123.422 E35.3125
G1 X94.948 Y122.85 E35.34646
G1 X94.649 Y122.238 E35.38045
G1 X94.424 Y121.596 E35.41438
G1 X94.275 Y120.931 E35.44838
G1 X94.2 Y120 E35.49498
G1 X94.2 Y100 E36.49279
G1 X94.24 Y99.32 E36.52677
G1 X94.359 Y98.65 E36.56072
G1 X94.556 Y97.998 E36.5947
G1 X94.828 Y97.374 E36.62866
G1 X95.172 Y96.786 E36.66265
G1 X95.582 Y96.242 E36.69663
G1 X96.053 Y95.751 E36.73058
G0 F6000 X96.445 Y95.935
G1 F1200 X96.965 Y95.534 E36.76334
G1 X97.529 Y95.198 E36.79609
G1 X98.131 Y94.934 E36.82889
G1 X98.76 Y94.744 E36.86167
G1 X99.407 Y94.633 E36.89442
G1 X100 Y94.6 E36.92405
G1 X120 Y94.6 E37.92185
G1 X120.656 Y94.64 E37.95464
G1 X121.302 Y94.759 E37.98741
G1 X121.929 Y94.956 E38.0202
G1 X122.527 Y95.228 E38.05298
G1 X123.088 Y95.57 E38.08576
G1 X123.603 Y95.978 E38.11854
G1 X124.065 Y96.445 E38.15131
G1 X124.466 Y96.965 E38.18407
G1 X124.802 Y97.529 E38.21682
G1 X125.066 Y98.131 E38.24962
G1 X125.256 Y98.76 E38.2824
G1 X125.367 Y99.407 E38.31515
G1 X125.4 Y100 E38.34478
G1 X125.4 Y120 E39.34259
G1 X125.36 Y120.656 E39.37537
G1 X125.241 Y121.302 E39.40815
G1 X125.044 Y121.929 E39.44093
G1 X124.772 Y122.527 E39.47371
G1 X124.43 Y123.088 E39.50649
G1 X124.022 Y123.603 E39.53927
G1 X123.555 Y124.065 E39.57204
G1 X123.035 Y124.466 E39.6048
G1 X122.471 Y124.802 E39.63756
G1 X121.869 Y125.066 E39.67035
G1 X121.24 Y125.256 E39.70313
G1 X120.593 Y125.367 E39.73588
G1 X120 Y125.4 E39.76551
G1 X100 Y125.4 E40.76332
G1 X99.344 Y125.36 E40.79611
G1 X98.698 Y125.241 E40.82888
G1 X98.071 Y125.044 E40.86167
G1 X97.473 Y124.772 E40.89444
G1 X96.912 Y124.43 E40.92722
G1 X96.397 Y124.022 E40.96
G1 X95.935 Y123.555 E40.99277
G1 X95.534 Y123.035 E41.02553
G1 X95.198 Y122.471 E41.05829
G1 X94.934 Y121.869 E41.09108
G1 X94.744 Y121.24 E41.12386
G1 X94.633 Y120.593 E41.15661
G1 X94.6 Y120 E41.18625
G1 X94.6 Y100 E42.18405
G1 X94.64 Y99.344 E42.21684
G1 X94.759 Y98.698 E42.24961
G1 X94.956 Y98.071 E42.2824
G1 X95.228 Y97.473 E42.31517
G1 X95.57 Y96.912 E42.34795
G1 X95.978 Y96.397 E42.38073
G1 X96.445 Y95.935 E42.41351
G0 F6000 X96.373 Y96.559
G1 F1200 X96.836 Y96.129 E42.44503
G1 X97.35 Y95.76 E42.4766
G1 X97.906 Y95.46 E42.50812
G1 X98.495 Y95.232 E42.53963
G1 X99.109 Y95.08 E42.57118
G1 X100 Y95 E42.61582
G1 X120 Y95 E43.61362
G1 X120.631 Y95.04 E43.64516
G1 X121.252 Y95.159 E43.67671
G1 X121.852 Y95.356 E43.70822
G1 X122.424 Y95.627 E43.73979
G1 X122.956 Y95.967 E43.77129
G1 X123.441 Y96.373 E43.80285
G1 X123.871 Y96.836 E43.83437
G1 X124.24 Y97.35 E43.86594
G1 X124.54 Y97.906 E43.89746
G1 X124.768 Y98.495 E43.92897
G1 X124.92 Y99.109 E43.96053
G1 X125 Y100 E44.00516
G1 X125 Y120 E45.00296
G1 X124.96 Y120.631 E45.03451
G1 X124.841 Y121.252 E45.06605
G1 X124.644 Y121.852 E45.09756
G1 X124.373 Y122.424 E45.12914
G1 X124.033 Y122.956 E45.16063
G1 X123.627 Y123.441 E45.19219
G1 X123.164 Y123.871 E45.22371
G1 X122.65 Y124.24 E45.25528
G1 X122.094 Y124.54 E45.2868
G1 X121.505 Y124.768 E45.31831
G1 X120.891 Y124.92 E45.34987
G1 X120 Y125 E45.3945
G1 X100 Y125 E46.3923
G1 X99.369 Y124.96 E46.42385
G1 X98.748 Y124.841 E46.45539
G1 X98.148 Y124.644 E46.4869
G1 X97.576 Y124.373 E46.51848
G1 X97.044 Y124.033 E46.54998
G1 X96.559 Y123.627 E46.58153
G1 X96.129 Y123.164 E46.61306
G1 X95.76 Y122.65 E46.64462
G1 X95.46 Y122.094 E46.67614
G1 X95.232 Y121.505 E46.70765
G1 X95.08 Y120.891 E46.73921
G1 X95 Y120 E46.78384
G1 X95 Y100 E47.78165
G1 X95.04 Y99.369 E47.81319
G1 X95.159 Y98.748 E47.84474
G1 X95.356 Y98.148 E47.87624
G1 X95.627 Y97.576 E47.90782
G1 X95.967 Y97.044 E47.93932
G1 X96.373 Y96.559 E47.97087
G0 F6000 X96.767 Y96.728
G1 F1200 X97.225 Y96.331 E48.00111
G1 X97.732 Y95.998 E48.03138
G1 X98.278 Y95.734 E48.06163
G1 X98.854 Y95.545 E48.09188
G1 X99.45 Y95.433 E48.12213
G1 X100 Y95.4 E48.14962
G1 X120 Y95.4 E49.14742
G1 X120.605 Y95.44 E49.17767
G1 X121.199 Y95.559 E49.2079
G1 X121.773 Y95.755 E49.23816
G1 X122.316 Y96.026 E49.26844
G1 X122.819 Y96.365 E49.2987
G1 X123.272 Y96.767 E49.32891
G1 X123.669 Y97.225 E49.35915
G1 X124.002 Y97.732 E49.38941
G1 X124.266 Y98.278 E49.41967
G1 X124.455 Y98.854 E49.44992
G1 X124.567 Y99.45 E49.48017
G1 X124.6 Y100 E49.50766
G1 X124.6 Y120 E50.50546
G1 X124.56 Y120.605 E50.53571
G1 X124.441 Y121.199 E50.56594
G1 X124.245 Y121.773 E50.5962
G1 X123.974 Y122.316 E50.62647
G1 X123.635 Y122.819 E50.65674
G1 X123.233 Y123.272 E50.68695
G1 X122.775 Y123.669 E50.71719
G1 X122.268 Y124.002 E50.74745
G1 X121.722 Y124.266 E50.77771
G1 X121.146 Y124.455 E50.80796
G1 X120.55 Y124.567 E50.83821
G1 X120 Y124.6 E50.8657
G1 X100 Y124.6 E51.8635
G1 X99.395 Y124.56 E51.89375
G1 X98.801 Y124.441 E51.92398
G1 X98.227 Y124.245 E51.95424
G1 X97.684 Y123.974 E51.98451
